!! 00010] TT[TB
!! Eigene Aufnahme
!!!OTL: Wu ling hua The two clouds
!!!ARE: Neimeng
!! Ethnic Group: Menggu
!! MM, S. 675
!!!SCT: C0554
!!!YEM: Copyright 1995, estate of Helmut Schaffrath.
**kern
*ICvox
*Ivox
*M2/4
*k[]
*C:
{8e
4e
8g
=1
4a
8cc
8a
=2
8a
8g
4e
=3
2g}
=4
{8g
4e
8g
=5
4.a
8cc
=6
8a
8g
4e
=7
2d}
=8
{4.d
8e
=9
4g
4a
=10
4a
4A
=11
4.c}
{8d
=12
8c
4A
8c
=13
8d
8e
4a
=14
8.e
16d
4c
=15
2A}
==
!!!AGN: NN
!! Saenger: Chao Lun Batou, der das Buch nur zum Nachschlagen
!!    benutzte und ansonsten auswendig sang. Da er aus dem Osten der
!!    Neimeng kommt, kennt er nicht so viele Lieder des Westens.
!!    Alle Lieder wurden mit erkaelteter, halber Stimme in meinem
!!    Zimmer gesungen. FOTO VORHANDEN (DIAS)  31.3.87  VARIANTE
!!!ONB: ESAC (Essen Associative Code) Database: CHINA
!!!AMT: simple duple
!!!AIN: vox
!!!EED: Helmut Schaffrath
!!!EEV: 1.0
*-
